!!!!SEGMENT: pl-cz--iii-370--001-007_krogulski-jozef-wladyslaw--msza-c-benedictus.krn
!!!cenid: 18xx:944
!!!COM: Krogulski, Józef Władysław
!!!COM-rismid: pe30001797
!!!CDT: 1815/10/04-1842/01/09
!!!CNT: Polish
!!!OPR: Msza C
!!!OTL: Benedictus
!!!OMV: 007
!!!PDT:
!!!AGN: Sacred; Mass
!!!SMS-siglum: PL-CZ
!!!SMS-shelfmark: III-370
!!!SMS-shelfwork: 001-007 M
!!!SMS-variant:
!!!SMS-altvar:
!!!NIFC-rismid: 300000646
!!!URL-scan: http://repozytorium.nifc.pl/skany/pl-cz-nut--iii-370
!!!ONB-nifc: UWAGA: części Mszy: Kyrie, Gloria, Andante przed Ewangelią, Credo, Offertorium, Sanctus, Benedictus, Agnus, Na Benedykcyią
**kern	**kern	**dynam	**kern	**text	**kern	**text	**dynam	**kern	**text	**dynam
*part4	*part4	*part4	*part3	*part3	*part2	*part2	*part2	*part1	*part1	*part1
*staff5	*staff4	*	*staff3	*staff3	*staff2	*staff2	*	*staff1	*staff1	*
*I"Organ	*I"Organ	*	*I"Bas	*	*I"Spiew Drugi	*	*	*I"Spiew Pierwszy	*	*
*I'org	*I'org	*	*I'B	*	*I'S 2	*	*	*I'S 1	*	*
*Iorgan	*Iorgan	*	*Ibass	*	*Isoprn	*	*	*Isoprn	*	*
*ICklav	*ICklav	*	*ICvox	*	*ICvox	*	*	*ICvox	*	*
*IGacmp	*IGacmp	*	*	*	*	*	*	*	*	*
*clefF4	*clefG2	*	*clefF4	*	*clefG2	*	*	*clefG2	*	*
*k[f#c#g#]	*k[f#c#g#]	*	*k[f#c#g#]	*	*k[f#g#c#]	*	*	*k[g#c#f#]	*	*
*A:	*A:	*	*A:	*	*A:	*	*	*A:	*	*
*M4/4	*M4/4	*	*M4/4	*	*M4/4	*	*	*M4/4	*	*
*met(c)	*met(c)	*	*met(c)	*	*met(c)	*	*	*met(c)	*	*
*all\right	*all\right	*	*all\right	*	*all\right	*	*	*all\right	*	*
!	!	!	!LO:TX:a:t=Na Benedictus	!	!LO:TX:t=P:problem:znaki ff# g# cc#	!	!	!	!	!
!	!LO:TX:a:t=Andante	!LO:DY:rj	!LO:TX:a:t=Solo	!	!LO:TX:a:i:t=Andante	!	!	!	!	!
4A 4AA\	(8cc#L 8a/	p	4A\	Wszech-	4ryy	.	.	4cc#\	wszech-	.
.	8e/J)	.	.	.	.	.	.	.	.	.
=1	=1	=1	=1	=1	=1	=1	=1	=1	=1	=1
!	!	!	!	!	!LO:TX:a:t=15	!	!	!	!	!
1A	(8cc#L 8a\	.	(4.A\	-mo-	00r	.	.	(4.cc#\	-mo-	.
.	8e\	.	.	.	.	.	.	.	.	.
.	8cc# 8a\	.	.	.	.	.	.	.	.	.
.	8ddJ 8b\)	.	8B\	.	.	.	.	8dd\	.	.
.	(8eeL 8cc#\	.	4c#\)	.	.	.	.	4ee\)	.	.
.	8a\	.	.	.	.	.	.	.	.	.
.	8ff# 8dd\	.	4d\	-cny	.	.	.	4ff#\	-cny	.
.	8a\J)	.	.	.	.	.	.	.	.	.
=2	=2	=2	=2	=2	=2	=2	=2	=2	=2	=2
*	*tremolo	*	*	*	*	*	*	*	*	*
*	*2\right	*	*2\right	*	*	*	*	*2\right	*	*
1D 1DD	8ff#L 8dd 8a\	.	2d\	Pa-	.	.	.	2ff#\	Pa-	.
.	8f#\	.	.	.	.	.	.	.	.	.
.	8ff# 8dd 8a\	.	.	.	.	.	.	.	.	.
.	8f#\J	.	.	.	.	.	.	.	.	.
*	*Xtremolo	*	*	*	*	*	*	*	*	*
.	(8ddL 8b\	.	8B\	-nie	.	.	.	8dd\	-nie	.
.	8f#\	.	8r	.	.	.	.	8r	.	.
.	8dd 8b\	.	8B\	wie-	.	.	.	8dd\	wie-	.
.	8cc#J 8a\)	.	8B\	-ku-	.	.	.	8dd\	-ku-	.
=3	=3	=3	=3	=3	=3	=3	=3	=3	=3	=3
1E 1EE	(8bL 8g#\	.	(4.G#\	-i-	.	.	.	(4.b\	-i-	.
.	8e\	.	.	.	.	.	.	.	.	.
.	8b 8g#\	.	.	.	.	.	.	.	.	.
.	8cc#J 8a\)	.	8A\	.	.	.	.	8cc#\	.	.
.	8ddL 8b\	.	4B\)	.	.	.	.	4dd\)	.	.
.	8e\	.	.	.	.	.	.	.	.	.
.	8ee 8cc#\	.	4c#\	-sty	.	.	.	4ee\	-sty	.
.	8e\J	.	.	.	.	.	.	.	.	.
!	!	!	!LO:LB:g=original	!	!	!	!	!	!	!
=4	=4	=4	=4	=4	=4	=4	=4	=4	=4	=4
*	*tremolo	*	*	*	*	*	*	*	*	*
1A 1AA	(8eeL 8cc#\	.	2c#\	Bo-	.	.	.	2ee\	Bo-	.
.	8e\)	.	.	.	.	.	.	.	.	.
.	(8ee 8cc#\	.	.	.	.	.	.	.	.	.
.	8e\J)	.	.	.	.	.	.	.	.	.
.	(8cc#L 8a\	.	4A\	-ze	.	.	.	4cc#\	-ze	.
.	8e\)	.	.	.	.	.	.	.	.	.
.	(8cc# 8a\	.	4r	.	.	.	.	4r	.	.
.	8e\J)	.	.	.	.	.	.	.	.	.
*	*Xtremolo	*	*	*	*	*	*	*	*	*
=5	=5	=5	=5	=5	=5	=5	=5	=5	=5	=5
4A\	(8cc#L 8a\	.	(4A\	Któż	00r	.	.	2cc#\	Któż	.
.	8e\	.	.	.	.	.	.	.	.	.
4G#\	8cc#\	.	4G#\)	.	.	.	.	.	.	.
.	8eJ\)	.	.	.	.	.	.	.	.	.
!LO:LB:g=original	!LO:LB:g=original	!	!	!	!	!	!	!	!	!
4F#\	(8ddL 8a\	.	4F#\	się	.	.	.	4dd\	się	.
.	8d\	.	.	.	.	.	.	.	.	.
4E\	8cc# 8a\	.	4E\	Twym	.	.	.	4cc#\	Twym	.
.	8eJ\)	.	.	.	.	.	.	.	.	.
=6	=6	=6	=6	=6	=6	=6	=6	=6	=6	=6
4D\	(8ff#L 8cc# 8a\	.	4D/	spra-	.	.	.	4ff#\	spra-	.
.	8f#\	.	.	.	.	.	.	.	.	.
*	*	*	*	*	*	*	*	*	*above	*
4C#\	8ee 8a\	.	4C#/	-wom	.	.	.	4ee\	-wom	.
.	8e\J)	.	.	.	.	.	.	.	.	.
!	!	!	!	!	!	!	!	!LO:LB:g=original	!	!
*	*	*	*	*	*	*	*	*	*below	*
4F#\	(8ddL 8a\	.	4F#\	wi-	.	.	.	4dd\	wy-	.
.	8d\	.	.	.	.	.	.	.	.	.
4E\	8cc# 8a\	.	4E\	-dzi-	.	.	.	4cc#\	-dzi-	.
.	8e\J)	.	.	.	.	.	.	.	.	.
=7	=7	=7	=7	=7	=7	=7	=7	=7	=7	=7
4D\	8bL 8g#/	.	(4D/	-wo-	.	.	.	(4b/	-wo-	.
.	8e/	.	.	.	.	.	.	.	.	.
4C#\	8a/	.	4C#/)	.	.	.	.	4a/	.	.
.	8e/J	.	.	.	.	.	.	.	.	.
4BB/	8ddL 8g#/	.	4BB/	.	.	.	.	4dd/)	.	.
.	8e/	.	.	.	.	.	.	.	.	.
4AA/	8cc# 8a/	.	4AA/	-wać	.	.	.	4cc#/	-wać	.
.	8e/J	.	.	.	.	.	.	.	.	.
=8	=8	=8	=8	=8	=8	=8	=8	=8	=8	=8
*	*tremolo	*	*	*	*	*	*	*	*	*
4AA/	8cc#L 8a/	.	(4AA/	mo-	.	.	.	2cc#\	mo-	.
.	8e/	.	.	.	.	.	.	.	.	.
4C#/	8cc# 8a/	.	4C#/)	.	.	.	.	.	.	.
.	8e/J	.	.	.	.	.	.	.	.	.
4E/	8bL 8a/	.	4E/	-ze	.	.	.	4b\	-ze	.
.	8g# 8e/	.	.	.	.	.	.	.	.	.
4r	8a 8f#/	.	4r	.	.	.	.	4r	.	.
.	8bJ 8g#/	.	.	.	.	.	.	.	.	.
=9	=9	=9	=9	=9	=9	=9	=9	=9	=9	=9
*2\right	*tremolo	*	*	*	*	*	*	*	*	*
2A 2AA\	8cc#L 8a\	.	2A\	Kto	00r	.	.	2cc#\	kto	.
.	8e\	.	.	.	.	.	.	.	.	.
.	8cc# 8a\	.	.	.	.	.	.	.	.	.
.	8e\J	.	.	.	.	.	.	.	.	.
*	*Xtremolo	*	*	*	*	*	*	*	*	*
4G# 4GG#\	8b\L	.	4G#\	ro-	.	.	.	4b\	ro-	.
.	8e\	.	.	.	.	.	.	.	.	.
4Gn 4GGn\	8cc#\	.	4Gn\	-zu-	.	.	.	4cc#\	-zu-	.
.	8e\J	.	.	.	.	.	.	.	.	.
!	!	!	!LO:LB:g=original	!	!	!	!	!	!	!
=10	=10	=10	=10	=10	=10	=10	=10	=10	=10	=10
4F# 4FF#/	8dd\L	.	(4F#\	-mo-	.	.	.	(4dd\	-mo-	.
.	8a\	.	.	.	.	.	.	.	.	.
4E 4C# 4CC#/	8ee\	.	4C#\)	.	.	.	.	4ee\)	.	.
.	8a\J	.	.	.	.	.	.	.	.	.
*	*tremolo	*	*	*	*	*	*	*	*	*
4D 4DD/	8ff#L 8dd\	.	4D\	-wi	.	.	.	4ff#\	-wi	.
.	8a\	.	.	.	.	.	.	.	.	.
4r	8ff# 8dd\	.	4r	.	.	.	.	4r	.	.
.	8a\J	.	.	.	.	.	.	.	.	.
*	*Xtremolo	*	*	*	*	*	*	*	*	*
=11	=11	=11	=11	=11	=11	=11	=11	=11	=11	=11
2C# 2CC#/	(8eeL 8cc#\	.	(4E\	Kto-	.	.	.	4.ee\	kto-	.
.	8e\	.	.	.	.	.	.	.	.	.
.	8ee 8cc#\	.	8c#\)	.	.	.	.	.	.	.
.	8cc#J 8a\)	.	8A\	-rym	.	.	.	8cc#\	-rym	.
2ryy	(8ddL 8b\	.	8B\L	nie-	.	.	.	8dd\L	nie-	.
.	8ee 8cc#\	.	8c#\	.	.	.	.	8ee\	.	.
.	8ff# 8dd\	.	8d\J	.	.	.	.	8ff#\J	.	.
.	8eeJ 8cc#\)	.	8c#\	-zmie-	.	.	.	8ee\	-zmie-	.
!LO:LB:g=original	!LO:LB:g=original	!	!	!	!	!	!	!	!	!
=12	=12	=12	=12	=12	=12	=12	=12	=12	=12	=12
*	*tremolo	*	*	*	*	*	*	*	*	*
[1A [1AA	(8eeL 8cc#\	.	2c#\	-rzo-	.	.	.	2ee\	-rzo-	.
.	8e\)	.	.	.	.	.	.	.	.	.
.	(8ee 8cc#\	.	.	.	.	.	.	.	.	.
.	8e\J)	.	.	.	.	.	.	.	.	.
.	8cc#L 8a\	.	4A\	-na	.	.	.	4cc#\	-na	.
.	8e\	.	.	.	.	.	.	.	.	.
.	8cc# 8a\	.	4r	.	.	.	.	4r	.	.
.	8e\J	.	.	.	.	.	.	.	.	.
*	*Xtremolo	*	*	*	*	*	*	*	*	*
!	!	!	!	!	!	!	!	!LO:LB:g=original	!	!
=13	=13	=13	=13	=13	=13	=13	=13	=13	=13	=13
1A_ 1AA_	(8eeL 8cc#\	.	(4.c#\	Zie-	0r	.	.	(4.ee\	Zie-	.
.	8e\	.	.	.	.	.	.	.	.	.
.	8ee 8cc#\	.	.	.	.	.	.	.	.	.
.	8ddJ 8b\)	.	8B\)	.	.	.	.	8dd\)	.	.
.	8cc#L 8a\	.	4A\	-mia	.	.	.	4cc#\	-mia	.
.	8e\	.	.	.	.	.	.	.	.	.
.	8dd 8b\	.	4B\	stwo-	.	.	.	4dd\	stwo-	.
.	8e\J	.	.	.	.	.	.	.	.	.
=14	=14	=14	=14	=14	=14	=14	=14	=14	=14	=14
*	*tremolo	*	*	*	*	*	*	*	*	*
(1A] (1AA]	8eeL 8cc#\	.	2c#\	-rzo-	.	.	.	2ee\	-rzo-	.
.	8e\	.	.	.	.	.	.	.	.	.
.	8ee 8cc#\	.	.	.	.	.	.	.	.	.
.	8e\J	.	.	.	.	.	.	.	.	.
.	8cc#L 8a\	.	4A\	-na	.	.	.	4cc#\	-na	.
.	8e\	.	.	.	.	.	.	.	.	.
.	8cc# 8a\	.	4r	.	.	.	.	4r	.	.
.	8e\J	.	.	.	.	.	.	.	.	.
*	*Xtremolo	*	*	*	*	*	*	*	*	*
!	!	!	!LO:LB:g=original	!	!	!	!	!	!	!
=15	=15	=15	=15	=15	=15	=15	=15	=15	=15	=15
[1E [1EE))	8cc#L 8a\	.	(4A\	Zie-	1r	.	.	4cc#\	Zie-	.
.	8e\	.	.	.	.	.	.	.	.	.
.	8b 8g#\	.	8G#\L	.	.	.	.	8b\L	.	.
.	8cc#J 8a\	.	8A\J)	.	.	.	.	8cc#\J	.	.
.	8eeL 8cc#\	.	8c#\L	-mia	.	.	.	8ee\L	-mia	.
.	8dd 8b\	.	8B\J	.	.	.	.	8dd\J	.	.
.	8cc# 8a\	.	8A\L	stwo-	.	.	.	8cc#\L	stwo-	.
.	8bJ 8g#\	.	8G#\J	.	.	.	.	8b\J	.	.
=16	=16	=16	=16	=16	=16	=16	=16	=16	=16	=16
*	*tremolo	*	*	*	*	*	*	*	*	*
2E] 2EE/]	8bL 8g#/	.	2G#\	-rzo-	2r	.	.	2b\	-rzo-	.
.	8d/	.	.	.	.	.	.	.	.	.
.	8b 8g#/	.	.	.	.	.	.	.	.	.
.	8d/J	.	.	.	.	.	.	.	.	.
*	*Xtremolo	*	*	*	*	*	*	*	*	*
8A 8AA\	8a 8c#/	.	8A\	-na	4r	.	.	8a\	-na	.
8r	8r	.	8r	.	.	.	.	8r	.	.
!	!	!LO:DY:rj	!	!	!	!	!LO:DY:a:t=fo	!LO:TX:a:i:t=Coro	!	!
4A\	4cc# 4a\	f	4A\	Gdzie-	4a/	Gdzie-	f	4cc#\	gdzie-	.
=17	=17	=17	=17	=17	=17	=17	=17	=17	=17	=17
2.A\	4.cc# 4.a\	.	2.A\	-kol-	(4.a/	-kol-	.	(4.cc#\	-kol-	.
.	8dd 8b\	.	.	.	8b/	.	.	8dd\	.	.
.	4ee 4cc#\	.	.	.	4cc#/)	.	.	4ee\)	.	.
4D\	4ff# 4dd\	.	4D\	-wiek	4dd/	-wiek	.	4ff#\	-wiek	.
=18	=18	=18	=18	=18	=18	=18	=18	=18	=18	=18
*	*^	*	*	*	*	*	*	*	*	*
*	*	*	*	*	*	*2\right	*	*	*	*	*
(2D\	2ff# 2dd/	4a\	.	2D\	slon-	2dd\	slon-	.	2ff#\	slon-	.
.	.	4a#X\	.	.	.	.	.	.	.	.	.
!	!	!	!	!	!	!	!	!	!LO:PB:g=original	!	!
8D\)	8dd 8b\	2ryy	.	8D\	-ce	8b\	-ce	.	8dd\	-ce	.
8r	8r	.	.	8r	.	8r	.	.	8r	.	.
8D\L	8ddL 8b\	.	.	8D\	rzu-	8b\	rzu-	.	8dd\	rzu-	.
8D#X\J	8cc#J 8an\	.	.	8D#X\	-ca	8a\	-ca	.	8cc#\	-ca	.
*	*v	*v	*	*	*	*	*	*	*	*	*
!LO:LB:g=original	!LO:LB:g=original	!	!	!	!	!	!	!	!	!
=19	=19	=19	=19	=19	=19	=19	=19	=19	=19	=19
1E	4.b 4.g#\	.	2.E\	o-	(<4.g#/	o-	.	(4.b\	o-	.
.	8cc# 8a\	.	.	.	8a/	.	.	8cc#\	.	.
!	!	!	!	!	!LO:LB:g=original	!	!	!	!	!
.	4dd 4b\	.	.	.	4b\	.	.	4dd\	.	.
!	!	!	!	!	!LO:TX:t=P:problem:koniec łuku na dole	!	!	!	!	!
.	4ee 4cc#\	.	4E\	-gnie	4cc#\)	-gnie	.	4ee\)	-gnie	.
!	!	!	!LO:LB:g=original	!	!	!	!	!	!	!
=20	=20	=20	=20	=20	=20	=20	=20	=20	=20	=20
2A\	2ee 2cc#\	.	2A\	swo-	2cc#\	Po ca	.	2ee\	swo-	.
4A\	4cc# 4a\	.	8A\	-je	8a/	-łym	.	8cc#\	-ie	.
.	.	.	8r	.	4r	.	.	4r	.	.
4A\	4cc# 4a\	.	4A\	po	.	.	.	.	.	.
.	.	.	.	.	8a\	Po	.	8cc#\	po	.
=21	=21	=21	=21	=21	=21	=21	=21	=21	=21	=21
*	*^	*	*	*	*	*	*	*	*	*
4A\	2cc#/	1a	.	(4A\	ca-	2.a/	ca-	.	(2cc#\	ca-	.
4G#\	.	.	.	4G#\	.	.	.	.	.	.	.
4F#\	4dd/	.	.	4F#\)	.	.	.	.	4dd\)	.	.
4E\	4cc#/	.	.	4E\	-łym	4a/	-łym	.	4cc#\	-łym	.
=22	=22	=22	=22	=22	=22	=22	=22	=22	=22	=22	=22
4D/	4ff#/	1a	.	4D\	świe-	4a/	świe-	.	4ff#\	swie-	.
4C#/	4ee/	.	.	4C#\	-cie	4a/	-cie	.	4ee\	-cie	.
4F#/	4dd/	.	.	4F#\	sły-	4a/	sły-	.	4dd\	sły-	.
*	*	*	*	*	*	*	*	*	*	*above	*
4E/	4cc#/	.	.	4E\	-nie	4a/	-nie	.	4cc#\	-nie	.
=23	=23	=23	=23	=23	=23	=23	=23	=23	=23	=23	=23
*	*	*	*	*	*	*	*	*	*	*below	*
4D/	4b/	2f#\	.	(4D/	i-	(2f#/	i-	.	(4b\	i-	.
4C#/	4a/	.	.	4C#/	.	.	.	.	4a\	.	.
4BB/	4dd\	4g# 4e\	.	4BB/)	.	4g#/)	.	.	4dd\	.	.
4AA/	4cc#\	4a 4e\	.	4AA/	-mnie	4a/	-mie	.	4cc#\)	-mnie	.
*	*v	*v	*	*	*	*	*	*	*	*	*
!	!	!	!	!	!	!	!	!LO:LB:g=original	!	!
=24	=24	=24	=24	=24	=24	=24	=24	=24	=24	=24
4AA/	2cc# 2a 2e\	.	(4AA/	two-	2a/	Two-	.	2cc#\	two-	.
4C#/	.	.	4C#/)	.	.	.	.	.	.	.
4E\	4b 4g# 4e\	.	8E/	-ie	8g#/	-ie	.	8b\	-ie	.
.	.	.	8r	.	8r	.	.	8r	.	.
4E\	4b 4g#\	.	4E\	bo	4g#/	bo	.	4b\	bo	.
!	!	!	!LO:LB:g=original	!	!	!	!	!	!	!
=25	=25	=25	=25	=25	=25	=25	=25	=25	=25	=25
1A 1AA	2cc# 2a\	.	2.AA/	sła-	(2a/	sła-	.	(2cc#\	sła-	.
.	4b 4gn/	.	.	.	4gn/)	.	.	4b\)	.	.
!	!	!	!	!	!LO:LB:g=original	!	!	!	!	!
.	4cc# 4e/	.	4AA/	-wy	4e/	-wy	.	4cc#\	-wy	.
=26	=26	=26	=26	=26	=26	=26	=26	=26	=26	=26
4D/	4dd 4f#\	.	(4D/	Nie-	(4f#/	Nie-	.	(4dd\	Nie-	.
4C#/	4ee 4a\	.	4C#/)	.	4a/)	.	.	4ee\)	.	.
4D/	2ff# 2dd\	.	4D/	-bo	4dd\	-bo	.	4ff#\	-bo	.
4BB/	.	.	4BB/	o-	4dd\	o-	.	4ff#\	o-	.
=27	=27	=27	=27	=27	=27	=27	=27	=27	=27	=27
1E 1EE	4.ee 4.cc#\	.	2E\	-gar-	(4.cc#\	-gar-	.	(4.ee\	-gar-	.
.	8cc# 8a\	.	.	.	8a\)	.	.	8cc#\)	.	.
.	8ddL 8b\	.	4E\	-nąć	8b\L	-nąć	.	8dd\L	-nąć	.
.	8ee 8cc#\	.	.	.	8cc#\J	.	.	8ee\J	.	.
.	8ff# 8dd\	.	4E\	nie	8dd\L	nie	.	8ff#\L	nie	.
.	8eeJ 8cc#\	.	.	.	8cc#\J	.	.	8ee\J	.	.
!LO:LB:g=original	!LO:LB:g=original	!	!	!	!	!	!	!	!	!
=28	=28	=28	=28	=28	=28	=28	=28	=28	=28	=28
2E 2EE/	2ee 2cc#/	.	2E\	mo-	2cc#\	mo-	.	2ee\	mo-	.
2A 2AA\	8cc# 8a\	.	8A\	-ze	8b\	-ze	.	8dd\	-ze	.
.	8r	.	8r	.	8r	.	.	8r	.	.
.	4ee 4cc#\	.	4A\	Po-	4cc#\	Po-	.	4ee\	po-	.
=29	=29	=29	=29	=29	=29	=29	=29	=29	=29	=29
[1A [1AA	4.ee 4.cc#\	.	2.A\	-tę-	(4.cc#\	-tę-	.	4.ee\	-tę-	.
.	8dd 8b\	.	.	.	8b\)	.	.	8dd\	.	.
!	!	!	!	!	!	!	!	!LO:LB:g=original	!	!
.	4cc# 4a\	.	.	.	4a\	.	.	4cc#\	.	.
.	4dd 4b\	.	4A\	-zny	4b\	-zny	.	4dd\	-zny	.
=30	=30	=30	=30	=30	=30	=30	=30	=30	=30	=30
(1A] (1AA]	2ee 2cc#\	.	2A\	Bo-	2cc#\	Bo-	.	2ee\	bo-	.
.	4cc# 4a\	.	8A\	-ze	8a\	-ze	.	8cc#\	-ze	.
.	.	.	8r	.	8r	.	.	8r	.	.
.	4cc# 4a\	.	4A\	Po-	4a\	Po-	.	4cc#\	Po-	.
!	!	!	!	!	!LO:LB:g=original	!	!	!	!	!
=31	=31	=31	=31	=31	=31	=31	=31	=31	=31	=31
[1E [1EE))	4cc# 4a\	.	2.E\	-te-	(4a/	-te-	.	(4cc#\	-te-	.
.	8bL 8g#\	.	.	.	8g#/L	.	.	8b\L	.	.
.	8cc#J 8a\	.	.	.	8a/J	.	.	8cc#\J	.	.
.	8eeL 8cc#\	.	.	.	8cc#/L	.	.	8ee\L	.	.
.	8dd 8b\	.	.	.	8b/J)	.	.	8dd\J)	.	.
.	8cc# 8a\	.	4E\	-zny	8a/L	-zny	.	8cc#\L	-zny	.
.	8bJ 8g#\	.	.	.	8g#/J	.	.	8b\J	.	.
!	!	!	!LO:LB:g=original	!	!	!	!	!	!	!
=32	=32	=32	=32	=32	=32	=32	=32	=32	=32	=32
2E] 2EE/]	2b 2g# 2d/	.	2E\	Bo-	2g#/	Bo-	.	2b\	Bo-	.
4A 4AA\	4a 4c#/	.	4A\	-ze	4a/	-ze	.	4a\	-ze	.
4r	4r	.	4r	.	4r	.	.	4r	.	.
=33	=33	=33	=33	=33	=33	=33	=33	=33	=33	=33
2A 2AA\	2ee 2cc# 2e\	.	2AA/	a-	2cc#\	A-	.	2ee\	A-	.
4A 4AA\	4cc# 4a 4e/	.	4AA/	-men	4a\	-men	.	4cc#\	-men	.
4r	4r	.	4r	.	4r	.	.	4r	.	.
=34	=34	=34	=34	=34	=34	=34	=34	=34	=34	=34
*	*	*	*	*	*	*ij	*	*	*	*
2A 2AA\	2cc# 2e/	.	2AA/	a-	2e/	A-	.	2cc#\	A-	.
4A 4AA\	4a 4c#/	.	4AA/	-men	4c#/	-men	.	4a\	-(men)	.
*	*	*	*	*	*	*Xij	*	*	*	*
4r	4r	.	4r	.	4r	.	.	4r	.	.
==	==	==	==	==	==	==	==	==	==	==
*-	*-	*-	*-	*-	*-	*-	*-	*-	*-	*-
!!!system-decoration: [(s1,s2,s3)]{(s4,s5)}
!!!RDF**kern: < = below
!!!AIN: 1 bass 1 organ 2 soprn
!!!ENC: Tomasz Grochalski
!!!END: 2020-08-31
!!!ENC: Marta Lawrence
!!!END: 2021-11-08
